static/images/uploads/champagne.svg

<?xml version="1.0" encoding="UTF-8"?>
<svg width="49px" height="56px" viewBox="0 0 49 56" version="1.1" xmlns="http://www.w3.org/2000/svg" xmlns:xlink="http://www.w3.org/1999/xlink">
    <!-- Generator: Sketch 50.2 (55047) - http://www.bohemiancoding.com/sketch -->
    <title>drinks</title>
    <desc>Created with Sketch.</desc>
    <defs></defs>
    <g id="-" stroke="none" stroke-width="1" fill="none" fill-rule="evenodd">
        <g id="Homepage" transform="translate(-696.000000, -3671.000000)" fill="#413F47">
            <g id="highlights" transform="translate(141.000000, 3199.000000)">
                <g id="drinks" transform="translate(555.000000, 472.000000)">
                    <path d="M23.952381,5 C24.5238095,5 24.9047619,4.71830986 24.9047619,4.29577465 L25,0.704225352 C25,0.281690141 24.6190476,0 24.047619,0 C23.4761905,0 23.0952381,0.281690141 23.0952381,0.704225352 L23,4.29577465 C23,4.71830986 23.4761905,5 23.952381,5" id="Fill-1"></path>
                    <path d="M27.7017544,6 C27.8421053,6 28.0526316,5.94545455 28.1929825,5.83636364 L30.7894737,3.92727273 C31.0701754,3.70909091 31.0701754,3.38181818 30.7894737,3.16363636 C30.5087719,2.94545455 30.0877193,2.94545455 29.8070175,3.16363636 L27.2105263,5.07272727 C26.9298246,5.29090909 26.9298246,5.61818182 27.2105263,5.83636364 C27.3508772,5.94545455 27.5614035,6 27.7017544,6" id="Fill-3"></path>
                    <path d="M20.8070175,5.83636364 C20.9473684,5.94545455 21.0877193,6 21.2982456,6 C21.5087719,6 21.6491228,5.94545455 21.7894737,5.83636364 C22.0701754,5.61818182 22.0701754,5.29090909 21.7894737,5.07272727 L19.1929825,3.16363636 C18.9122807,2.94545455 18.4912281,2.94545455 18.2105263,3.16363636 C17.9298246,3.38181818 17.9298246,3.70909091 18.2105263,3.92727273 L20.8070175,5.83636364 Z" id="Fill-5"></path>
                    <path d="M38.4278337,8.40329457 C38.9006317,9.5118059 39.4409723,11.1052909 39.9813129,12.7680579 L27.9587347,15.6779002 C27.6885644,13.9458512 27.4183941,12.3523662 27.3508515,11.1745729 L38.4278337,8.40329457 Z M42.5479307,31.058495 C42.0075901,34.1069011 40.8593663,36.046796 39.3058871,36.4624877 C37.7524079,36.8781795 35.7936733,35.7003862 33.9700238,33.2062357 C32.0112891,30.5735213 30.3227248,26.7630135 29.3771287,22.606096 C29.1069584,21.3590208 28.6341604,19.280562 28.228905,17.1328213 L40.3865683,14.1536971 C40.9944515,16.2321559 41.5347921,18.2413327 41.8049624,19.419126 C42.818101,23.6453254 43.0882713,27.732961 42.5479307,31.058495 Z M32.8893426,34.0376192 C34.7805347,36.5317697 36.8068119,37.9174089 38.6304614,37.9174089 L38.9006317,37.9174089 L42.6154733,53.5751315 L38.3602911,54.6143608 C38.0225782,54.6836428 37.7524079,55.0993345 37.8874931,55.4457443 C37.9550357,55.7921541 38.225206,56 38.5629188,56 L38.698004,56 L48.4916772,53.5751315 C48.8293901,53.5058495 49.0995604,53.0901577 48.9644753,52.743748 C48.8969327,52.3973382 48.4916772,52.1202103 48.1539644,52.2587742 L43.8987822,53.2980036 L40.1839406,37.640281 C41.9400475,36.8088975 43.2233565,34.6611568 43.8312396,31.3356228 C44.4391228,27.8715249 44.1689525,23.5760435 43.1558139,19.1419981 C42.4803881,16.4400017 40.5891961,9.85821569 39.4409723,7.36406519 C39.3058871,7.08693736 38.9681743,6.94837344 38.698004,7.0176554 L26.5403406,10.0660616 C26.2026277,10.1353435 26,10.4124714 26,10.7588812 C26.0675426,13.5301595 27.3508515,20.2505095 28.0262772,22.9525058 C29.0394158,27.2479873 30.7955228,31.2663408 32.8893426,34.0376192 Z" id="Fill-7"></path>
                    <path d="M38.4144183,18.0127014 C38.1390924,18.0789919 37.9188318,18.476735 38.0289621,18.8081876 C39.2403958,24.6417529 39.0201351,29.6135415 38.5245486,31.0719328 C38.4144183,31.4033854 38.5245486,31.8011285 38.7998745,31.9337095 C38.8549396,32 38.96507,32 39.0201351,32 C39.2403958,32 39.4606565,31.867419 39.5157217,31.6022569 C40.1214385,29.8787035 40.3416992,24.7080434 39.0752003,18.476735 C39.0201351,18.1452824 38.6897441,17.9464109 38.4144183,18.0127014" id="Fill-9"></path>
                    <path d="M6.50341404,31.1628945 C5.96254237,27.9112401 6.16536925,23.7601918 7.17950363,19.5399594 C7.44993947,18.2946449 7.99081114,16.2883049 8.59929177,14.2819649 L20.7689044,17.2568829 C20.3632506,19.4015911 19.9575969,21.4771153 19.6195521,22.7224297 C18.6054177,26.9426621 16.9828027,30.6786056 15.0221429,33.3076028 C13.196701,35.7290476 11.2360412,36.905178 9.68103511,36.5592573 C8.26124697,36.1441525 7.04428571,34.1378125 6.50341404,31.1628945 M10.6275605,8.5396815 L21.7154298,11.307047 C21.6478208,12.4831774 21.377385,14.0744125 21.1069492,15.804016 L9.07255448,12.8982822 C9.61342615,11.2378629 10.1542978,9.6466277 10.6275605,8.5396815 M0.486216704,53.5785552 L10.2895157,56 L10.4247337,56 C10.6951695,56 11.0332143,55.7924476 11.1008232,55.4465269 C11.1684322,55.1006062 10.9656053,54.6855014 10.6275605,54.6163172 L6.36819612,53.5785552 L10.0866889,37.94294 L10.3571247,37.94294 C12.2501755,37.94294 14.2784443,36.6284414 16.1038862,34.0686283 C18.1997639,31.3012628 19.8899879,27.357767 20.9717312,22.9299822 C21.6478208,20.2318008 22.932391,13.4517553 23,10.7535739 C23,10.4076532 22.7971731,10.1309167 22.4591283,10.0617325 L10.2895157,7.01763047 C9.95147094,6.94844633 9.68103511,7.08681461 9.54581719,7.36355116 C8.39646489,9.85418012 6.50341404,16.4266732 5.82732445,19.1248546 C4.74558111,23.4834553 4.54275423,27.8420559 5.15123486,31.3012628 C5.69210654,34.5529173 6.97667675,36.7668097 8.80211864,37.5970194 L5.08362591,53.2326345 L0.824261498,52.1948724 C0.486216704,52.1256883 0.0805629508,52.3332407 0.012953992,52.6791614 C-0.0546549669,53.0942662 0.14817191,53.4401869 0.486216704,53.5785552" id="Fill-11"></path>
                    <path d="M9.48350829,31.0719328 C8.97778301,29.547251 8.75301622,24.6417529 9.98923357,18.8081876 C10.0454253,18.476735 9.87685018,18.0789919 9.59589169,18.0127014 C9.3149332,17.9464109 8.97778301,18.1452824 8.92159132,18.476735 C7.62918227,24.7080434 7.91014075,29.8787035 8.47205773,31.6022569 C8.58444113,31.867419 8.75301622,32 8.97778301,32 C9.03397471,32 9.14635811,32 9.20254981,31.9337095 C9.4273166,31.8011285 9.59589169,31.4033854 9.48350829,31.0719328" id="Fill-13"></path>
                </g>
            </g>
        </g>
    </g>
</svg>

<svg width="49" height="56" xmlns="http://www.w3.org/2000/svg"><g fill="#413F47" fill-rule="evenodd"><path d="M23.952 5c.572 0 .953-.282.953-.704L25 .704C25 .282 24.619 0 24.048 0c-.572 0-.953.282-.953.704L23 4.296c0 .422.476.704.952.704M27.702 6a.88.88 0 0 0 .491-.164l2.596-1.909c.281-.218.281-.545 0-.763a.82.82 0 0 0-.982 0l-2.596 1.909c-.281.218-.281.545 0 .763.14.11.35.164.49.164M20.807 5.836c.14.11.28.164.491.164.21 0 .351-.055.491-.164.281-.218.281-.545 0-.763l-2.596-1.91a.82.82 0 0 0-.982 0c-.281.219-.281.546 0 .764l2.596 1.91zM38.428 8.403c.473 1.109 1.013 2.702 1.553 4.365l-12.022 2.91c-.27-1.732-.54-3.326-.608-4.503l11.077-2.772zm4.12 22.655c-.54 3.049-1.689 4.989-3.242 5.404-1.554.416-3.512-.762-5.336-3.256-1.959-2.632-3.647-6.443-4.593-10.6-.27-1.247-.743-3.325-1.148-5.473l12.158-2.98c.607 2.08 1.148 4.088 1.418 5.266 1.013 4.226 1.283 8.314.743 11.64zm-9.659 2.98c1.892 2.494 3.918 3.88 5.741 3.88h.27l3.715 15.657-4.255 1.04c-.337.069-.608.484-.473.83a.662.662 0 0 0 .676.555h.135l9.794-2.425c.337-.07.608-.485.472-.831-.067-.347-.472-.624-.81-.485l-4.255 1.039-3.715-15.658c1.756-.831 3.04-2.979 3.647-6.304.608-3.464.338-7.76-.675-12.194-.676-2.702-2.567-9.284-3.715-11.778a.673.673 0 0 0-.743-.346L26.54 10.066c-.337.07-.54.346-.54.693.068 2.771 1.35 9.492 2.026 12.194 1.013 4.295 2.77 8.313 4.863 11.085z"/><path d="M38.414 18.013c-.275.066-.495.464-.385.795 1.211 5.834.991 10.806.496 12.264-.11.331 0 .73.275.862.055.066.165.066.22.066.22 0 .44-.133.496-.398.605-1.723.826-6.894-.44-13.125-.056-.332-.386-.53-.662-.464M6.503 31.163c-.54-3.252-.338-7.403.677-11.623.27-1.245.81-3.252 1.42-5.258l12.169 2.975c-.406 2.145-.811 4.22-1.15 5.465-1.014 4.22-2.636 7.957-4.597 10.586-1.825 2.421-3.786 3.597-5.341 3.251-1.42-.415-2.637-2.421-3.178-5.396M10.628 8.54l11.087 2.767c-.067 1.176-.338 2.767-.608 4.497L9.073 12.898c.54-1.66 1.081-3.251 1.555-4.358M.486 53.579L10.29 56h.135c.27 0 .608-.208.676-.553.067-.346-.135-.761-.473-.83l-4.26-1.038 3.719-15.636h.27c1.893 0 3.921-1.315 5.747-3.874C18.2 31.3 19.89 27.358 20.972 22.93c.676-2.698 1.96-9.478 2.028-12.176 0-.346-.203-.623-.54-.692L10.29 7.018c-.339-.07-.609.069-.744.346-1.15 2.49-3.043 9.063-3.719 11.76-1.081 4.36-1.284 8.718-.676 12.177.541 3.252 1.826 5.466 3.651 6.296L5.084 53.233l-4.26-1.038c-.338-.07-.743.138-.811.484-.068.415.135.761.473.9"/><path d="M9.484 31.072c-.506-1.525-.731-6.43.505-12.264.056-.331-.112-.729-.393-.795a.576.576 0 0 0-.674.464c-1.293 6.231-1.012 11.402-.45 13.125.112.265.281.398.506.398.056 0 .168 0 .225-.066.224-.133.393-.53.28-.862"/></g></svg>
